X:1
T:James Gibb editions
T:Tantum ergo (B flat) - Bruckner
%%score [ 1 2 3 4 ]
L:1/8
Q:1/4=120
M:2/2
K:Bb
V:1 treble nm="Soprano"
V:2 treble nm="Alto"
V:3 treble-8 nm="Tenor"
V:4 bass nm="Bass"
V:1
!p!"^langsam""^Tantum ergo (B flat)""^Anton Bruckner\n(1824-1896)" B4 B4 | B4 A4 | B4 c4 | d4 c4 | %4
w: Tan- tum|er- go|Sa- cra-|men- tum|
w: Ge- ni-|to- ri,|Ge- ni-|to- que|
"^cresc." d4 d4 | f4 f4 |"^dim." f4 d4 | c4 z4 |!f! c4 d4 |[M:2/2] e4 (e2 d2) | c4 d4 | d4 G4 | %12
w: ve- ne-|re- mur|cer- nu-|i:|Et an-|ti- quum *|do- cu-|men- tum|
w: laus et|ju- bi-|­~la ti-|o,|Sa- lus,|ho- nor, *|vir- tus|quo- que|
!p! G4 G4 | !courtesy!=A4 A4 |"^dim." A6 A2 | =B4 z4 |!f! G4 G4 | (G4 c2) B2 | A4 B4 | (e4 d4) | %20
w: no- vo|ce- dat|ri- tu-|i:|Prae- stet|fi\- * des|sup- ple-|men\- *|
w: sit et|be- ne-|di- cti-|o:|Pro- ce-|den\- * ti|ab- u-|tro\- *|
 c4 z4 |!p! B4 A4 | e4 d4 | (d2 c2) (B2 A2) | B4 z4 ||!<(! B8-!<)! | B8 |!>(! !fermata!B8!>)! |] %28
w: tum|sen- su-|um de-|fe\- * ctu\- *|i.||||
w: que|com- par|sit lau-|da\- * ti\- *|o.|A\-||men.|
V:2
!p! D4 (D2 E2) | F4 F4 | F4 F4 | F4 F4 |"^cresc." ^F4 G4 | A4 (B2 A2) |"^dim." B4 F4 | F4 z4 | %8
w: Tan- tum *|er- go|Sa- cra-|men- tum|ve- ne-|re- mur *|cer- nu-|i:|
w: Ge- ni\- *|to- ri,|Ge- ni-|to- que|laus et|ju- bi\- *|la ti-|o,|
!f! F4 F4 |[M:2/2] E4 G4 | (_A2 G2) (F2 EF) | G4 G4 |!p! G4 G4 | G4 G4 |"^dim." (G4 ^F2) F2 | %15
w: Et an-|ti- quum|do\- * cu\- * *|men- tum|no- vo|ce- dat|ri\_- * tu-|
w: Sa- lus,|ho- nor,|vir\- * tus * *|quo- que|sit et|be- ne-|di\- * cti-|
 G4 z4 |!f! G4 (G2 !courtesy!=F2) | E6 E2 | F4 F4 | (G4 F4) | F4 z4 |!p! F4 F4 | A4 B4 | G4 F4 | %24
w: i:|Prae- stet *|fi- des|sup- ple-|men\- *|tum|sen- su-|um de-|fe- ctu-|
w: o:|Pro- ce\- *|den- ti|ab- u-|tro\- *|que|com- par|sit lau-|da- ti-|
 F4 z4 ||!<(! E8-!<)! | E8 |!>(! !fermata!D8!>)! |] %28
w: i.||||
w: o.|A\-||men.|
V:3
!p! B4 B4 | d4 c4 | B4 A4 | B4 A4 |"^cresc." A4 B4 | c4 (d2 c2) |"^dim." d4 B4 | A4 z4 | %8
w: Tan- tum|er- go|Sa- cra-|men- tum|ve- ne-|re- mur *|cer- nu-|i:|
w: Ge- ni-|to- ri,|Ge- ni-|to- que|laus et|ju- bi\- *|la ti-|o,|
!f! _A4 A4 |[M:2/2][K:treble-8] G4 e4 | e4 c4 | c4 =B4 |!p! G4 f4 | e4 (d2 c2) |"^dim." d6 d2 | %15
w: Et an-|ti- quum|do- cu-|men- tum|no- vo|ce- dat *|ri- tu-|
w: Sa- lus,|ho- nor,|vir- tus|quo- que|sit et|be- ne\- *|di- cti-|
 d4 z4 |!f! (g2 f2) (e2 d2) | (e2 d2 c2) c2 | c4 B4 | (B2 A2 B4) | A4 z4 |!p! F4 e4 | c4 B4 | %23
w: i:|Prae\- * stet *|fi\- * * des|sup- ple-|men\- * *|tum|sen- su-|um de-|
w: o:|Pro\- * ce\- *|den\- * * ti|ab- u-|tro\- * *|que|com- par|sit lau-|
 e4 (d2 c2) | d4 z4 ||!<(! G8-!<)! | G8 |!>(! !fermata!F8!>)! |] %28
w: fe- ctu\- *|i.||||
w: da- ti\- *|o.|A\-||men.|
V:4
!p! B,4 G,4 | F,4 F,4 | D,4 F,4 | B,,4 F,4 |"^cresc." D,4 G,4 | F,4 (B,2 F,2) | %6
w: Tan- tum|er- go|Sa- cra-|men- tum|ve- ne-|re- mur *|
w: Ge- ni-|to- ri,|Ge- ni-|to- que|laus et|ju- bi- *|
"^dim." B,,4 (B,,2 D,2) | F,4 z4 |!f! F,4 =B,,4 |[M:2/2] C,4 (C2 B,2) | _A,4 A,4 | G,4 G,4 | %12
w: cer- nu- *|i:|Et an-|ti- quum *|do- cu-|men- tum|
w: ­~la ti- *|o,|Sa- lus,|ho- nor, *|vir- tus|quo- que|
!p! !courtesy!_E,4 D,4 | C,4 (D,2 E,2) |"^dim." D,6 D,2 | G,,4 z4 | z8 | %17
w: no- vo|ce- dat *|ri- tu-|i:||
w: sit et|be- ne\- *|di- cti-|o:||
!f! C2 B,2 !courtesy!=A,2 G,2 | (F,2 E,2) D,4 | (C,4 D,2 E,2) | F,4 z4 |!p! D,4 C,4 | F,4 G,4 | %23
w: Prae- stet fi- des|sup\- * ple-|men\- * *|tum|sen- su-|um de-|
w: Pro- ce- den- ti|ab\- * u-|tro\- * *|que|com- par|sit lau-|
 E,4 F,4 | B,,4 z4 ||!<(! E,8-!<)! | E,8 |!>(! !fermata!B,,8!>)! |] %28
w: fe- ctu-|i.||||
w: da- ti-|o.|A\-||men.|

